build/img/svg/fb.svg

<svg width="12" height="9" viewBox="0 0 12 9" fill="none" xmlns="http://www.w3.org/2000/svg">
<path d="M4.55859 5.23242H1.67578V9H0.603516V0.46875H5.04492V1.39453H1.67578V4.3125H4.55859V5.23242ZM6.36914 9V0.46875H8.80078C9.57812 0.46875 10.1621 0.658203 10.5527 1.03711C10.9473 1.41602 11.1445 1.98438 11.1445 2.74219C11.1445 3.14062 11.0449 3.49219 10.8457 3.79688C10.6465 4.10156 10.377 4.33789 10.0371 4.50586C10.4277 4.62305 10.7363 4.86328 10.9629 5.22656C11.1934 5.58984 11.3086 6.02734 11.3086 6.53906C11.3086 7.30469 11.0977 7.90625 10.6758 8.34375C10.2578 8.78125 9.66016 9 8.88281 9H6.36914ZM7.44141 5.00977V8.08008H8.90625C9.3125 8.08008 9.63477 7.94727 9.87305 7.68164C10.1113 7.41211 10.2305 7.03516 10.2305 6.55078C10.2305 5.52344 9.79688 5.00977 8.92969 5.00977H7.44141ZM7.44141 4.10742H8.81836C9.18945 4.10742 9.48828 3.98242 9.71484 3.73242C9.94531 3.48242 10.0605 3.15039 10.0605 2.73633C10.0605 2.26758 9.95703 1.92773 9.75 1.7168C9.54297 1.50195 9.22656 1.39453 8.80078 1.39453H7.44141V4.10742Z" fill="white"/>
</svg>

<svg width="12" height="9" fill="none" xmlns="http://www.w3.org/2000/svg"><path d="M4.559 5.232H1.676V9H.604V.469h4.44v.926H1.677v2.917H4.56v.92zM6.369 9V.469h2.432c.777 0 1.361.19 1.752.568.394.379.591.947.591 1.705 0 .399-.1.75-.298 1.055-.2.305-.469.54-.809.709.39.117.7.357.926.72.23.364.346.801.346 1.313 0 .766-.211 1.367-.633 1.805C10.258 8.78 9.66 9 8.883 9H6.369zm1.072-3.99v3.07h1.465c.406 0 .729-.133.967-.398.238-.27.357-.647.357-1.131 0-1.028-.433-1.541-1.3-1.541H7.44zm0-.903h1.377c.371 0 .67-.125.897-.375.23-.25.345-.582.345-.996 0-.468-.103-.808-.31-1.02-.207-.214-.523-.321-.95-.321H7.442v2.712z" fill="#fff"/></svg>
